priv/static/images/languages/python.svg

<svg
  width="138"
  height="136"
  viewBox="0 0 138 136"
  fill="none"
  xmlns="http://www.w3.org/2000/svg"
>
  <path
    d="M68.7183 0C34.0516 2.47339e-06 36.2165 15.0336 36.2165 15.0336L36.2551 30.6082H69.3367V35.2845H23.1152C23.1152 35.2845 0.932007 32.7687 0.932007 67.7477C0.932004 102.727 20.294 101.486 20.294 101.486H31.8494V85.2546C31.8494 85.2546 31.2265 65.8926 50.9022 65.8926C70.5779 65.8926 83.7133 65.8926 83.7133 65.8926C83.7133 65.8926 102.148 66.1906 102.148 48.0765C102.148 29.9624 102.148 18.1253 102.148 18.1253C102.148 18.1253 104.947 0 68.7183 0ZM50.4771 10.4733C53.7685 10.4733 56.4287 13.1335 56.4287 16.4249C56.4287 19.7162 53.7685 22.3764 50.4771 22.3764C47.1857 22.3764 44.5255 19.7162 44.5255 16.4249C44.5255 13.1335 47.1857 10.4733 50.4771 10.4733Z"
    fill="url(#paint0_linear_1_923)"
  />
  <path
    d="M69.7028 135.846C104.37 135.846 102.205 120.813 102.205 120.813L102.166 105.238H69.0845V100.562H115.306C115.306 100.562 137.489 103.078 137.489 68.0985C137.489 33.1195 118.127 34.3599 118.127 34.3599H106.572V50.5916C106.572 50.5916 107.195 69.9536 87.5189 69.9536C67.8432 69.9536 54.7079 69.9536 54.7079 69.9536C54.7079 69.9536 36.2734 69.6556 36.2734 87.7697C36.2734 105.884 36.2734 117.721 36.2734 117.721C36.2734 117.721 33.4745 135.846 69.7028 135.846ZM87.9441 125.373C84.6527 125.373 81.9925 122.713 81.9925 119.421C81.9925 116.13 84.6527 113.47 87.9441 113.47C91.2354 113.47 93.8956 116.13 93.8956 119.421C93.8957 122.713 91.2354 125.373 87.9441 125.373Z"
    fill="url(#paint1_linear_1_923)"
  />
  <defs>
    <linearGradient
      id="paint0_linear_1_923"
      x1="14.0554"
      y1="11.8742"
      x2="81.579"
      y2="79.6236"
      gradientUnits="userSpaceOnUse"
    >
      <stop stop-color="#387EB8" />
      <stop offset="1" stop-color="#366994" />
    </linearGradient>
    <linearGradient
      id="paint1_linear_1_923"
      x1="55.5929"
      y1="54.9734"
      x2="128.113"
      y2="124.452"
      gradientUnits="userSpaceOnUse"
    >
      <stop stop-color="#FFE052" />
      <stop offset="1" stop-color="#FFC331" />
    </linearGradient>
  </defs>
</svg>

<svg xmlns="http://www.w3.org/2000/svg" width="138" height="136" fill="none"><path fill="url(#a)" d="M68.718 0C34.052 0 36.217 15.034 36.217 15.034l.038 15.574h33.082v4.677H23.115S.932 32.769.932 67.748s19.362 33.738 19.362 33.738h11.555V85.255s-.622-19.362 19.053-19.362h32.811s18.435.298 18.435-17.816V18.125S104.947 0 68.718 0m-18.24 10.473a5.946 5.946 0 0 1 5.95 5.952 5.946 5.946 0 0 1-5.95 5.951 5.946 5.946 0 0 1-5.953-5.951 5.946 5.946 0 0 1 5.952-5.952"/><path fill="url(#b)" d="M69.703 135.846c34.667 0 32.502-15.033 32.502-15.033l-.039-15.575H69.085v-4.676h46.221s22.183 2.516 22.183-32.463-19.362-33.74-19.362-33.74h-11.555v16.233s.623 19.362-19.053 19.362H54.708s-18.435-.298-18.435 17.816v29.951s-2.799 18.125 33.43 18.125m18.241-10.473a5.946 5.946 0 0 1-5.951-5.952 5.946 5.946 0 0 1 5.951-5.951 5.946 5.946 0 0 1 5.952 5.951 5.946 5.946 0 0 1-5.952 5.952"/><defs><linearGradient id="a" x1="14.055" x2="81.579" y1="11.874" y2="79.624" gradientUnits="userSpaceOnUse"><stop stop-color="#387EB8"/><stop offset="1" stop-color="#366994"/></linearGradient><linearGradient id="b" x1="55.593" x2="128.113" y1="54.973" y2="124.452" gradientUnits="userSpaceOnUse"><stop stop-color="#FFE052"/><stop offset="1" stop-color="#FFC331"/></linearGradient></defs></svg>
